Numix-GalliumOS/64/mimetypes/text-x-sql.svg

<svg xmlns="http://www.w3.org/2000/svg" xmlns:xlink="http://www.w3.org/1999/xlink" width="64px" height="64px" viewBox="0 0 64 64" version="1.1">
<g id="surface1">
<path style=" stroke:none;fill-rule:nonzero;fill:rgb(63.921569%,21.176471%,22.352941%);fill-opacity:1;" d="M 10.671875 0 C 9.296875 0 8 1.355469 8 2.789062 L 8 61.210938 C 8 62.566406 9.375 64 10.671875 64 L 53.328125 64 C 54.625 64 56 62.566406 56 61.210938 L 56 18 L 38 0 Z M 10.671875 0 "/>
<path style=" stroke:none;fill-rule:nonzero;fill:rgb(0%,0%,0%);fill-opacity:0.196078;" d="M 8 48 L 8 61.335938 C 8 62.632812 9.375 64 10.664062 64 L 53.335938 64 C 54.625 64 56 62.632812 56 61.335938 L 56 48 Z M 8 48 "/>
<path style=" stroke:none;fill-rule:nonzero;fill:rgb(100%,100%,100%);fill-opacity:1;" d="M 21.789062 58.578125 C 22.199219 58.578125 22.527344 58.550781 22.789062 58.488281 C 23.070312 58.410156 23.289062 58.316406 23.445312 58.195312 C 23.601562 58.074219 23.707031 57.933594 23.757812 57.785156 C 23.824219 57.625 23.855469 57.46875 23.855469 57.308594 C 23.855469 57.101562 23.78125 56.925781 23.644531 56.765625 C 23.496094 56.609375 23.316406 56.46875 23.09375 56.355469 C 22.863281 56.226562 22.617188 56.113281 22.339844 56.019531 C 22.066406 55.917969 21.789062 55.824219 21.511719 55.738281 C 21.140625 55.625 20.765625 55.503906 20.371094 55.363281 C 19.976562 55.234375 19.617188 55.054688 19.289062 54.839844 C 18.96875 54.636719 18.707031 54.375 18.492188 54.066406 C 18.285156 53.746094 18.179688 53.355469 18.179688 52.886719 C 18.179688 51.972656 18.550781 51.253906 19.289062 50.730469 C 20.035156 50.207031 21.058594 49.953125 22.363281 49.953125 C 23.109375 49.953125 23.757812 50.019531 24.316406 50.160156 C 24.871094 50.300781 25.347656 50.449219 25.734375 50.617188 L 25.019531 52.132812 C 24.691406 51.980469 24.324219 51.851562 23.914062 51.746094 C 23.519531 51.636719 23.058594 51.589844 22.535156 51.589844 C 21.246094 51.589844 20.609375 51.960938 20.609375 52.71875 C 20.609375 52.90625 20.671875 53.074219 20.804688 53.222656 C 20.9375 53.363281 21.101562 53.484375 21.296875 53.609375 C 21.503906 53.710938 21.730469 53.804688 21.984375 53.886719 C 22.25 53.972656 22.503906 54.054688 22.757812 54.132812 C 23.132812 54.242188 23.527344 54.382812 23.9375 54.523438 C 24.355469 54.664062 24.742188 54.859375 25.078125 55.101562 C 25.4375 55.335938 25.726562 55.625 25.949219 55.992188 C 26.167969 56.335938 26.285156 56.785156 26.285156 57.328125 C 26.285156 58.242188 25.90625 58.964844 25.160156 59.46875 C 24.421875 59.964844 23.296875 60.214844 21.789062 60.214844 C 20.773438 60.214844 19.96875 60.132812 19.363281 59.964844 C 18.753906 59.785156 18.304688 59.617188 18 59.46875 L 18.714844 57.878906 C 19.066406 58.046875 19.484375 58.207031 19.976562 58.355469 C 20.476562 58.503906 21.074219 58.578125 21.789062 58.578125 "/>
<path style=" stroke:none;fill-rule:nonzero;fill:rgb(100%,100%,100%);fill-opacity:1;" d="M 27.605469 55.132812 C 27.605469 53.4375 27.988281 52.160156 28.769531 51.300781 C 29.539062 50.429688 30.621094 50 32 50 C 33.433594 50 34.527344 50.429688 35.273438 51.300781 C 36.019531 52.160156 36.394531 53.4375 36.394531 55.132812 C 36.394531 56.617188 36.101562 57.785156 35.511719 58.644531 C 34.917969 59.488281 34.066406 60 32.941406 60.1875 C 33.089844 60.449219 33.433594 60.664062 33.992188 60.832031 C 34.558594 61.019531 35.320312 61.179688 36.296875 61.308594 L 35.789062 62.710938 C 34.246094 62.542969 33.082031 62.253906 32.296875 61.851562 C 31.523438 61.457031 31.058594 60.898438 30.917969 60.148438 C 29.851562 59.945312 29.03125 59.410156 28.449219 58.578125 C 27.882812 57.730469 27.605469 56.578125 27.605469 55.132812 M 30.0625 55.132812 C 30.0625 55.609375 30.089844 56.054688 30.128906 56.46875 C 30.179688 56.878906 30.269531 57.242188 30.402344 57.5625 C 30.546875 57.871094 30.746094 58.113281 30.992188 58.289062 C 31.246094 58.476562 31.582031 58.5625 32 58.5625 C 32.410156 58.5625 32.738281 58.476562 32.984375 58.289062 C 33.246094 58.113281 33.445312 57.871094 33.574219 57.5625 C 33.722656 57.242188 33.8125 56.878906 33.855469 56.46875 C 33.902344 56.054688 33.9375 55.609375 33.9375 55.132812 C 33.9375 54.65625 33.902344 54.207031 33.855469 53.792969 C 33.8125 53.375 33.722656 53.007812 33.574219 52.699219 C 33.445312 52.394531 33.253906 52.148438 33.007812 51.972656 C 32.753906 51.785156 32.417969 51.699219 32 51.699219 C 31.582031 51.699219 31.246094 51.785156 30.992188 51.972656 C 30.746094 52.148438 30.546875 52.402344 30.402344 52.71875 C 30.269531 53.019531 30.179688 53.382812 30.128906 53.792969 C 30.089844 54.207031 30.0625 54.65625 30.0625 55.132812 "/>
<path style=" stroke:none;fill-rule:nonzero;fill:rgb(100%,100%,100%);fill-opacity:1;" d="M 46 60.011719 L 38.332031 60.011719 L 38.332031 50.167969 L 40.777344 50.167969 L 40.777344 58.394531 L 46 58.394531 L 46 60.011719 "/>
<path style=" stroke:none;fill-rule:nonzero;fill:rgb(0%,0%,0%);fill-opacity:0.196078;" d="M 42 18 L 56 32 L 56 18 Z M 42 18 "/>
<path style=" stroke:none;fill-rule:nonzero;fill:rgb(100%,100%,100%);fill-opacity:0.392157;" d="M 38 0 L 55.984375 18 L 40.757812 18 C 39.410156 18 38 16.574219 38 15.226562 Z M 38 0 "/>
<path style=" stroke:none;fill-rule:nonzero;fill:rgb(100%,100%,100%);fill-opacity:1;" d="M 32 21.992188 C 26.476562 21.992188 22 23.390625 22 25.121094 L 22 27.617188 C 22 29.347656 26.476562 30.746094 32 30.746094 C 37.523438 30.746094 42 29.347656 42 27.617188 L 42 25.121094 C 42 23.390625 37.523438 21.992188 32 21.992188 Z M 32 21.992188 "/>
<path style=" stroke:none;fill-rule:nonzero;fill:rgb(100%,100%,100%);fill-opacity:1;" d="M 31.96875 31.992188 C 27.488281 31.992188 23.714844 31.078125 22.441406 29.808594 C 22.140625 30.101562 22 30.417969 22 30.746094 L 22 33.246094 C 22 34.972656 26.476562 36.375 32 36.375 C 37.523438 36.375 42 34.972656 42 33.246094 L 42 30.746094 C 42 30.417969 41.824219 30.101562 41.53125 29.808594 C 40.257812 31.078125 36.445312 31.992188 31.96875 31.992188 Z M 31.96875 31.992188 "/>
<path style=" stroke:none;fill-rule:nonzero;fill:rgb(100%,100%,100%);fill-opacity:1;" d="M 31.96875 37.617188 C 27.488281 37.617188 23.714844 36.703125 22.441406 35.4375 C 22.140625 35.730469 22 36.042969 22 36.375 L 22 38.871094 C 22 40.601562 26.476562 42 32 42 C 37.523438 42 42 40.601562 42 38.871094 L 42 36.375 C 42 36.042969 41.824219 35.730469 41.53125 35.4375 C 40.257812 36.703125 36.445312 37.617188 31.96875 37.617188 Z M 31.96875 37.617188 "/>
</g>
</svg>

<svg xmlns="http://www.w3.org/2000/svg" viewBox="0 0 64 64">
 <g>
  <path d="m 10.672 0 c -1.375 0 -2.672 1.355 -2.672 2.789 l 0 58.42 c 0 1.355 1.375 2.789 2.672 2.789 l 42.656 0 c 1.297 0 2.672 -1.434 2.672 -2.789 l 0 -43.21 l -18 -18 m -27.328 0" style="fill:#a33638;fill-opacity:1;stroke:none;fill-rule:nonzero"/>
  <path d="m 8 48 l 0 13.336 c 0 1.297 1.375 2.664 2.664 2.664 l 42.672 0 c 1.289 0 2.664 -1.367 2.664 -2.664 l 0 -13.336 m -48 0" style="fill:#000;fill-opacity:0.196;stroke:none;fill-rule:nonzero"/>
  <path d="m 21.789 58.58 c 0.41 0 0.738 -0.027 1 -0.09 c 0.281 -0.078 0.5 -0.172 0.656 -0.293 c 0.156 -0.121 0.262 -0.262 0.313 -0.41 c 0.066 -0.16 0.098 -0.316 0.098 -0.477 c 0 -0.207 -0.074 -0.383 -0.211 -0.543 c -0.148 -0.156 -0.328 -0.297 -0.551 -0.41 c -0.23 -0.129 -0.477 -0.242 -0.754 -0.336 c -0.273 -0.102 -0.551 -0.195 -0.828 -0.281 c -0.371 -0.113 -0.746 -0.234 -1.141 -0.375 c -0.395 -0.129 -0.754 -0.309 -1.082 -0.523 c -0.32 -0.203 -0.582 -0.465 -0.797 -0.773 c -0.207 -0.32 -0.313 -0.711 -0.313 -1.18 c 0 -0.914 0.371 -1.633 1.109 -2.156 c 0.746 -0.523 1.77 -0.777 3.074 -0.777 c 0.746 0 1.395 0.066 1.953 0.207 c 0.555 0.141 1.031 0.289 1.418 0.457 l -0.715 1.516 c -0.328 -0.152 -0.695 -0.281 -1.105 -0.387 c -0.395 -0.109 -0.855 -0.156 -1.379 -0.156 c -1.289 0 -1.926 0.371 -1.926 1.129 c 0 0.188 0.063 0.355 0.195 0.504 c 0.133 0.141 0.297 0.262 0.492 0.387 c 0.207 0.102 0.434 0.195 0.688 0.277 c 0.266 0.086 0.52 0.168 0.773 0.246 c 0.375 0.109 0.77 0.25 1.18 0.391 c 0.418 0.141 0.805 0.336 1.141 0.578 c 0.359 0.234 0.648 0.523 0.871 0.891 c 0.219 0.344 0.336 0.793 0.336 1.336 c 0 0.914 -0.379 1.637 -1.125 2.141 c -0.738 0.496 -1.863 0.746 -3.371 0.746 c -1.016 0 -1.82 -0.082 -2.426 -0.25 c -0.609 -0.18 -1.059 -0.348 -1.363 -0.496 l 0.715 -1.59 c 0.352 0.168 0.77 0.328 1.262 0.477 c 0.5 0.148 1.098 0.223 1.813 0.223" style="fill:#fff;fill-opacity:1;stroke:none;fill-rule:nonzero"/>
  <path d="m 27.605 55.13 c 0 -1.695 0.383 -2.973 1.164 -3.832 c 0.77 -0.871 1.852 -1.301 3.23 -1.301 c 1.434 0 2.527 0.43 3.273 1.301 c 0.746 0.859 1.121 2.137 1.121 3.832 c 0 1.484 -0.293 2.652 -0.883 3.512 c -0.594 0.844 -1.445 1.355 -2.57 1.543 c 0.148 0.262 0.492 0.477 1.051 0.645 c 0.566 0.188 1.328 0.348 2.305 0.477 l -0.508 1.402 c -1.543 -0.168 -2.707 -0.457 -3.492 -0.859 c -0.773 -0.395 -1.238 -0.953 -1.379 -1.703 c -1.066 -0.203 -1.887 -0.738 -2.469 -1.57 c -0.566 -0.848 -0.844 -2 -0.844 -3.445 m 2.457 0 c 0 0.477 0.027 0.922 0.066 1.336 c 0.051 0.41 0.141 0.773 0.273 1.094 c 0.145 0.309 0.344 0.551 0.59 0.727 c 0.254 0.188 0.59 0.273 1.01 0.273 c 0.41 0 0.738 -0.086 0.984 -0.273 c 0.262 -0.176 0.461 -0.418 0.59 -0.727 c 0.148 -0.32 0.238 -0.684 0.281 -1.094 c 0.047 -0.414 0.082 -0.859 0.082 -1.336 c 0 -0.477 -0.035 -0.926 -0.082 -1.34 c -0.043 -0.418 -0.133 -0.785 -0.281 -1.094 c -0.129 -0.305 -0.32 -0.551 -0.566 -0.727 c -0.254 -0.188 -0.59 -0.273 -1.01 -0.273 c -0.418 0 -0.754 0.086 -1.01 0.273 c -0.246 0.176 -0.445 0.43 -0.59 0.746 c -0.133 0.301 -0.223 0.664 -0.273 1.074 c -0.039 0.414 -0.066 0.863 -0.066 1.34" style="fill:#fff;fill-opacity:1;stroke:none;fill-rule:nonzero"/>
  <path d="m 46 60.01 l -7.668 0 l 0 -9.844 l 2.445 0 l 0 8.227 l 5.223 0 l 0 1.617" style="fill:#fff;fill-opacity:1;stroke:none;fill-rule:nonzero"/>
  <path d="m 42 18 l 14 14 l 0 -14 m -14 0" style="fill:#000;fill-opacity:0.196;stroke:none;fill-rule:nonzero"/>
  <path d="m 38 0 l 17.984 18 l -15.227 0 c -1.348 0 -2.758 -1.426 -2.758 -2.773 m 0 -15.227" style="fill:#fff;fill-opacity:0.392;stroke:none;fill-rule:nonzero"/>
  <path d="m 32 21.992 c -5.523 0 -10 1.398 -10 3.129 l 0 2.496 c 0 1.73 4.477 3.129 10 3.129 c 5.523 0 10 -1.398 10 -3.129 l 0 -2.496 c 0 -1.73 -4.477 -3.129 -10 -3.129 m 0 0" style="fill:#fff;fill-opacity:1;stroke:none;fill-rule:nonzero"/>
  <path d="m 31.969 31.992 c -4.48 0 -8.254 -0.914 -9.527 -2.184 c -0.301 0.293 -0.441 0.609 -0.441 0.938 l 0 2.5 c 0 1.727 4.477 3.129 10 3.129 c 5.523 0 10 -1.402 10 -3.129 l 0 -2.5 c 0 -0.328 -0.176 -0.645 -0.469 -0.938 c -1.273 1.27 -5.086 2.184 -9.563 2.184 m 0 0" style="fill:#fff;fill-opacity:1;stroke:none;fill-rule:nonzero"/>
  <path d="m 31.969 37.617 c -4.48 0 -8.254 -0.914 -9.527 -2.18 c -0.301 0.293 -0.441 0.605 -0.441 0.938 l 0 2.496 c 0 1.73 4.477 3.129 10 3.129 c 5.523 0 10 -1.398 10 -3.129 l 0 -2.496 c 0 -0.332 -0.176 -0.645 -0.469 -0.938 c -1.273 1.266 -5.086 2.18 -9.563 2.18 m 0 0" style="fill:#fff;fill-opacity:1;stroke:none;fill-rule:nonzero"/>
 </g>
</svg>
